X: 1
T: Cat that Ate the Candle, The
Z: Hiroyuki Yamada
R: jig
M: 6/8
L: 1/8
T: Cow that Ate the Blanket, The
D: John Carty & Brian McGrath "The Cat that Ate the Candle"
Z: Contributed 20040716222256 by Hiroyuki Yamada slainte_mha@infoseek.jp
K: Gmaj
A|B2A BGD|GAG GBd|ege dBG|ABA ABc|
B2A BGD|GAG GBd|ege dBG|AGF G2:|
d|gfg efg|fag fed|gfg edB|BAG ABc|
B2A BGD|GAG GBd|ege dBG|AGF G2:|
